X:1
T:The Old Forge
C:Josephine Marsh
D:The Josephine Marsh Band - I Can Hear you Smiling, Track 13a
R: Reel
M:C|
L:1/8
K:C
GCEG EDCA, | C2 EG G2 EG | AFFG AdcA | GEEC D2 CD |
EG (3GGG Acde | dcAF c2 AG | E2 GE AFcA |1 GEDE C4 :|2 GEDE C2 ef ||
g2 e2 dced | cAAG c2 AG | EG G2 EGcG | AFAc d2 cd |
e2 ge d3 e | dcAG c2 AG | E2 GE AFcA |1 GEDE C2 ef :|2 GEDE C4 ||
